icons/tokens/0xe1237aA7f535b0CC33Fd973D66cBf830354D16c7/logo-alt.svg

<svg xmlns="http://www.w3.org/2000/svg" width="32" height="32" viewBox="0 0 32 32">
  <g fill="none" fill-rule="evenodd">
    <path fill="#FFF" d="M32,15.999936 C32,13.905856 31.58336,11.811776 30.78208,9.877056 C29.98048,7.942336 28.79424,6.166976 27.3136,4.686336 C25.83296,3.205376 24.0576,2.019456 22.12288,1.217856 C20.18816,0.416576 18.09408,-6.4e-05 16,-6.4e-05 C13.90592,-6.4e-05 11.81152,0.416576 9.8768,1.217856 C7.94208,2.019456 6.16704,3.205376 4.68608,4.686336 C3.20544,6.166976 2.0192,7.942336 1.21792,9.877056 C0.41632,11.811776 0,13.905856 0,15.999936 C0,18.094016 0.41632,20.188096 1.21792,22.122816 C2.0192,24.057536 3.20544,25.832896 4.68608,27.313856 C6.16704,28.794496 7.94208,29.980736 9.8768,30.782016 C11.81152,31.583296 13.90592,31.999936 16,31.999936 C18.09408,31.999936 20.18816,31.583296 22.12288,30.782016 C24.0576,29.980736 25.83296,28.794496 27.3136,27.313856 C28.79424,25.832896 29.98048,24.057536 30.78208,22.122816 C31.58336,20.188096 32,18.094016 32,15.999936 Z"/>
    <path fill="#0657F9" d="M11.85472,3.383616 C13.34528,2.893696 14.93824,2.669696 16.51616,2.730176 C18.0944,2.790656 19.65792,3.135936 21.11296,3.743936 C22.56832,4.351936 23.9152,5.222976 25.06752,6.297536 C26.59168,7.719296 27.77504,9.497536 28.4848,11.486656 C29.19488,13.476096 29.43136,15.676416 29.15744,17.771136 C28.88384,19.865856 28.09984,21.855296 26.91392,23.566016 C25.728,25.276736 24.13984,26.708416 22.27456,27.700416 C20.40928,28.692096 18.26624,29.243776 16.15392,29.275776 C14.0416,29.307776 11.95968,28.820416 10.09504,27.894976 C8.23072,26.969536 6.58336,25.606336 5.33248,23.903616 C4.0816,22.200896 3.2272,20.158656 2.888,18.074816 C2.5488,15.990656 2.7248,13.864576 3.37472,11.881216 C3.86592,10.381696 4.62816,8.964096 5.6048,7.735616 L4.12032,7.735616 L4.12032,5.281856 L9.93696,5.281856 L9.93696,10.713536 L7.4832,10.713536 L7.4832,9.229376 C6.6832,10.235456 6.05856,11.396736 5.65632,12.625536 C5.12416,14.251136 4.9808,15.995136 5.25632,17.696896 C5.59872,19.813696 6.5888,21.864896 8.06656,23.445696 C9.83424,25.336256 12.29952,26.554176 14.86592,26.820736 C17.432,27.087296 20.0992,26.402816 22.21728,24.928576 C24.33536,23.454336 25.90496,21.190336 26.54208,18.689856 C27.1792,16.189376 26.88384,13.452416 25.73504,11.142016 C24.58624,8.831616 22.58368,6.948416 20.18912,5.958976 C17.79456,4.969216 15.00768,4.873856 12.60384,5.663616 L11.85472,3.383616 Z"/>
    <g fill="#000" transform="translate(11.034 7.999)">
      <polygon points="4.876 0 0 8.011 4.876 10.865 9.753 8.011"/>
      <polygon points="0 8.927 4.876 15.731 9.756 8.927 4.876 11.78"/>
    </g>
  </g>
</svg>

<svg viewBox="0 0 32 32"><g fill="none" fill-rule="evenodd"><path fill="#FFF" d="M32 16c0-2.094-.417-4.188-1.218-6.123a16.057 16.057 0 00-3.468-5.19 16.052 16.052 0 00-5.191-3.47A16.055 16.055 0 0016 0c-2.094 0-4.188.417-6.123 1.218a16.055 16.055 0 00-5.19 3.468 16.05 16.05 0 00-3.47 5.191A16.049 16.049 0 000 16c0 2.094.416 4.188 1.218 6.123a16.056 16.056 0 003.468 5.19 16.054 16.054 0 005.19 3.469A16.056 16.056 0 0016 32c2.094 0 4.188-.417 6.123-1.218a16.05 16.05 0 005.19-3.468 16.062 16.062 0 003.47-5.191A16.055 16.055 0 0032 16z"/><path fill="#0657F9" d="M11.855 3.384a13.266 13.266 0 0113.213 2.914 13.155 13.155 0 013.417 5.189c.71 1.99.946 4.19.672 6.284a13.194 13.194 0 01-2.243 5.795 13.207 13.207 0 01-4.64 4.134 13.622 13.622 0 01-6.12 1.576 13.207 13.207 0 01-6.059-1.381 13.19 13.19 0 01-4.763-3.991 13.662 13.662 0 01-2.444-5.83 13.13 13.13 0 01.487-6.193 13.391 13.391 0 012.23-4.145H4.12V5.282h5.817v5.432H7.483V9.229a10.961 10.961 0 00-1.827 3.397 10.786 10.786 0 00-.4 5.07 11.107 11.107 0 002.81 5.75 10.952 10.952 0 006.8 3.375 11.023 11.023 0 007.351-1.892 10.999 10.999 0 004.325-6.24c.637-2.5.342-5.237-.807-7.547a10.919 10.919 0 00-5.546-5.183c-2.394-.99-5.181-1.085-7.585-.295l-.75-2.28z"/><g fill="#000"><path d="M15.91 7.999l-4.876 8.011 4.876 2.854 4.877-2.854z"/><path d="M11.034 16.926l4.876 6.804 4.88-6.804-4.88 2.853z"/></g></g></svg>
